theme/essential/pix_core/e/spellcheck.svg

<!DOCTYPE svg PUBLIC "-//W3C//DTD SVG 1.1//EN" "http://www.w3.org/Graphics/SVG/1.1/DTD/svg11.dtd" [
	<!ENTITY ns_flows "http://ns.adobe.com/Flows/1.0/">
]><svg xmlns="http://www.w3.org/2000/svg" width="16" height="16" viewBox="-1 0 16 16" preserveAspectRatio="xMinYMid meet" overflow="visible" enable-background="new -1 0 16 16"><path d="M1 7h-1v-6c0-.3.1-.5.3-.7.2-.2.4-.3.7-.3h2c.3 0 .5.1.7.3.2.2.3.4.3.7v6h-1v-3h-2v3zm0-4h2v-2h-2v2zm10 5l-5.5 4.7-2.2-2.3-1.3 1.1 3.5 4.5 6.5-7-1-1zm-2.7-4.5c.5 0 .7.3.7 1v1.5c0 .3-.1.5-.3.7-.2.2-.4.3-.7.3h-3v-7h3c.3 0 .5.1.7.3.2.2.3.4.3.7v1.5c0 .7-.2 1-.7 1zm-.3-2.5h-2v2h2v-2zm0 3h-2v2h2v-2zm3-3v5h3v1h-3c-.3 0-.5-.1-.7-.3-.2-.2-.3-.4-.3-.7v-5c0-.3.1-.5.3-.7.2-.2.4-.3.7-.3h3v1h-3z" fill="#999"/></svg>

<?xml version="1.0" encoding="utf-8"?>
<!-- Generator: Adobe Illustrator 15.1.0, SVG Export Plug-In  -->
<!DOCTYPE svg PUBLIC "-//W3C//DTD SVG 1.1//EN" "http://www.w3.org/Graphics/SVG/1.1/DTD/svg11.dtd" [
	<!ENTITY ns_flows "http://ns.adobe.com/Flows/1.0/">
]>
<svg version="1.1"
	 xmlns="http://www.w3.org/2000/svg" xmlns:xlink="http://www.w3.org/1999/xlink" xmlns:a="http://ns.adobe.com/AdobeSVGViewerExtensions/3.0/"
	 x="0px" y="0px" width="16px" height="16px" viewBox="-1 0 16 16" style="overflow:visible;enable-background:new -1 0 16 16;"
	 xml:space="preserve" preserveAspectRatio="xMinYMid meet">
<defs>
</defs>
<path style="fill:#29a1c4;" d="M1,7H0V1c0-0.3,0.1-0.5,0.3-0.7C0.5,0.1,0.7,0,1,0h2c0.3,0,0.5,0.1,0.7,0.3C3.9,0.5,4,0.7,4,1v6H3V4
	H1V7z M1,3h2V1H1V3z M11,8l-5.5,4.7l-2.2-2.3L2,11.5L5.5,16L12,9L11,8z M8.3,3.5c0.5,0,0.7,0.3,0.7,1V6c0,0.3-0.1,0.5-0.3,0.7
	C8.5,6.9,8.3,7,8,7H5V0h3c0.3,0,0.5,0.1,0.7,0.3C8.9,0.5,9,0.7,9,1v1.5C9,3.2,8.8,3.5,8.3,3.5z M8,1H6v2h2V1z M8,4H6v2h2V4z M11,1v5
	h3v1h-3c-0.3,0-0.5-0.1-0.7-0.3C10.1,6.5,10,6.3,10,6V1c0-0.3,0.1-0.5,0.3-0.7C10.5,0.1,10.7,0,11,0h3v1H11z"/>
</svg>
